X:1
T: The General Practitioner
C:Bruce Shawyer
R:Strathspey
Q:128
K:F
M:4/4
L:1/16
|:F3G|Ac3 G3A F3G A3B|c3=B ce3 f4 e3f|df3 e3d c3A F3A|B2 A4 GF G6 FG|
Ac3 G3A F3G A3B|c3=B ce3 f4 e3f|df3 e3d c3A GA3|F8-F4 F2G2|
Ad3 d3e f3e d3f|cA3 A3G A6A2|Ad3 d3e f3e d3f|e3d ^ce3 d8|
Ad3 d3e f3e d3f|ce3 e3f g8|df3 e3d c3A GA3|F8-F4:|
